X:1
T: the Black Dance
O: Rutherford 1772
R: march
B: RSCDS 12-__(I)
Z: 1997 by John Chambers <jc:trillian.mit.edu>
N: "Adapted from Rutherford 1772"
M: C|
L: 1/8
%
K: F
cA \
| "F"F2F2 "Gm"GABG | "C7"cdcB "F"A2cA | "Bb"F2F2 "Gm"GABG | "C7"c6 cA \
| "F"F2F2 "Gm"GABG | "C7"cdcB "F"A2cA | "Dm"F2F2 "C7"GABG | "F"F6 |]
yde \
| "Bb"f2f2 f2ed |  "F"c2c2 c2AG | "Dm"F2GA "Am"c2BA | "Gm"G2G2 "C7"G2de \
| "Dm"f2f2 f2ed | "Am"c2c2 c2AG | "Bb"F2GA "C7"B2AG | "F"F2F2 F2 |]
